X: 0
T: A Fig For A Kiss
C: Trad
M: 9/8
L: 1/8
K: Edor
|: "Em"G2B E2B BAG | "D"F2A D2A AGF | "Em"G2B E2B BAG |(3Bcd B "D"AGF "Em"E3 :|
| "Em"g2e g2e edB | "D"f2d dcd fed | "Em"g2e g2e edB |"G"dBG "Em"GBd "D"e2f |
 "Em"g2e g2e edB | "D"f2d dcd fed | "C"gfe "D"fed "Em"ecA | "G"(3Bcd B "D"AGF "Em"E3 |]